images/icons/video-btn.svg

<svg width="33" height="33" viewBox="0 0 33 33" fill="none" xmlns="http://www.w3.org/2000/svg">
<path fill-rule="evenodd" clip-rule="evenodd" d="M31.8955 16.4478C31.8955 24.9794 24.9793 31.8956 16.4477 31.8956C7.9161 31.8956 0.99987 24.9794 0.99987 16.4478C0.99987 7.91623 7.9161 1 16.4477 1C24.9793 1 31.8955 7.91623 31.8955 16.4478ZM16.4477 0C25.5316 0 32.8955 7.36394 32.8955 16.4478C32.8955 25.5317 25.5316 32.8956 16.4477 32.8956C7.36381 32.8956 -0.0001297 25.5317 -0.0001297 16.4478C-0.0001297 7.36394 7.36381 0 16.4477 0Z" fill="white"/>
<path fill-rule="evenodd" clip-rule="evenodd" d="M13.6173 10.8107C13.7814 10.7241 13.9799 10.7355 14.1329 10.8403L22.3568 16.4672C22.493 16.5604 22.5745 16.7148 22.5745 16.8798C22.5745 17.0449 22.493 17.1993 22.3568 17.2925L14.1329 22.9194C13.9799 23.0241 13.7814 23.0355 13.6173 22.949C13.4533 22.8624 13.3506 22.6922 13.3506 22.5067V11.2529C13.3506 11.0675 13.4533 10.8972 13.6173 10.8107ZM14.3506 12.2009V21.5588L21.189 16.8798L14.3506 12.2009Z" fill="white"/>
</svg>

<svg width="33" height="33" fill="none" xmlns="http://www.w3.org/2000/svg"><path fill-rule="evenodd" clip-rule="evenodd" d="M31.895 16.448c0 8.531-6.916 15.448-15.447 15.448C7.916 31.896 1 24.979 1 16.448 1 7.916 7.916 1 16.448 1c8.531 0 15.447 6.916 15.447 15.448zM16.448 0c9.084 0 16.447 7.364 16.447 16.448s-7.363 16.448-16.447 16.448S0 25.532 0 16.448 7.364 0 16.448 0z" fill="#fff"/><path fill-rule="evenodd" clip-rule="evenodd" d="M13.617 10.81a.5.5 0 01.516.03l8.224 5.627a.5.5 0 010 .826l-8.224 5.626a.5.5 0 01-.782-.412V11.253a.5.5 0 01.266-.442zm.734 1.39v9.359l6.838-4.68-6.838-4.678z" fill="#fff"/></svg>
